src/assets/images/integration-check-1.svg

<svg width="32" height="32" viewBox="0 0 32 32" fill="none" xmlns="http://www.w3.org/2000/svg">
<path d="M13.0346 18.6727L8.9915 14.6231L7.16851 16.4396L13.0346 22.3057L29.6759 5.66438L27.8595 3.8479L13.0346 18.6727ZM21.9673 15.5801C22.0519 16.1336 22.117 16.6479 22.117 17.2143C22.117 22.0973 18.1455 26.0623 13.269 26.0623C8.38601 26.0623 4.421 22.0908 4.421 17.2143C4.421 12.3313 8.39252 8.36631 13.269 8.36631C15.5217 8.36631 17.2731 9.12155 19.0245 10.4823L20.8475 8.65929C18.5687 6.81677 16.2509 5.8011 13.269 5.8011C6.96668 5.79459 1.84277 10.9185 1.84277 17.2143C1.84277 23.5102 6.96668 28.6341 13.2625 28.6341C19.5583 28.6341 24.6822 23.5102 24.6822 17.2143C24.6822 15.8341 24.4348 14.7663 24.0833 13.4642L21.9673 15.5801Z" fill="url(#paint0_linear_1_16415)"/>
<defs>
<linearGradient id="paint0_linear_1_16415" x1="2.91328" y1="20.7163" x2="27.0001" y2="20.683" gradientUnits="userSpaceOnUse">
<stop stop-color="#D8AE6B"/>
<stop offset="1" stop-color="#1AD079"/>
</linearGradient>
</defs>
</svg>

<svg xmlns="http://www.w3.org/2000/svg" width="32" height="32" fill="none" viewBox="0 0 32 32"><path fill="url(#a)" d="m13.035 18.673-4.043-4.05-1.823 1.817 5.866 5.866 16.64-16.642-1.815-1.816zm8.932-3.093c.085.554.15 1.068.15 1.634 0 4.883-3.972 8.848-8.848 8.848-4.883 0-8.848-3.971-8.848-8.848 0-4.883 3.972-8.848 8.848-8.848 2.253 0 4.004.756 5.756 2.116l1.823-1.823c-2.28-1.842-4.597-2.858-7.579-2.858C6.967 5.795 1.843 10.92 1.843 17.214c0 6.296 5.124 11.42 11.42 11.42 6.295 0 11.42-5.124 11.42-11.42 0-1.38-.248-2.448-.6-3.75z"/><defs><linearGradient id="a" x1="2.913" x2="27" y1="20.716" y2="20.683" gradientUnits="userSpaceOnUse"><stop stop-color="#d8ae6b"/><stop offset="1" stop-color="#1ad079"/></linearGradient></defs></svg>
